public/img/StipendiumLargeCircle.svg

<svg fill="none" height="201" viewBox="0 0 609 201" width="609" xmlns="http://www.w3.org/2000/svg"><path d="m545.428 26.9894c-80.58-15.3176-161.805-20.90768-244.822-21.58425-74.367-.60607-175.927-11.88723-242.6955 20.25185-33.6412 16.1932-61.41554 57.4596-52.08218 87.669 6.33498 20.505 22.67758 37.723 47.29908 47.965 59.6936 24.831 138.5896 29.45 205.1396 33.576 73.708 4.57 155.208 6.408 226.398-10.792 29.74-7.186 57.946-18.183 83.792-31.311 11.715-5.95 30.003-14.685 35.43-25.448 10.458-20.736-20.359-49.9973-38.796-62.7541-26.684-18.4638-57.866-27.4414-93.003-30.3778" stroke="#30e1b9" stroke-linecap="round" stroke-linejoin="round" stroke-width="6"/></svg>

<svg width="609" height="201" viewBox="0 0 609 201" fill="none" xmlns="http://www.w3.org/2000/svg">
<path d="M545.428 26.9894C464.848 11.6718 383.623 6.08172 300.606 5.40515C226.239 4.79908 124.679 -6.48208 57.9105 25.657C24.2693 41.8502 -3.50504 83.1166 5.82832 113.326C12.1633 133.831 28.5059 151.049 53.1274 161.291C112.821 186.122 191.717 190.741 258.267 194.867C331.975 199.437 413.475 201.275 484.665 184.075C514.405 176.889 542.611 165.892 568.457 152.764C580.172 146.814 598.46 138.079 603.887 127.316C614.345 106.58 583.528 77.3187 565.091 64.5619C538.407 46.0981 507.225 37.1205 472.088 34.1841" stroke="#30E1B9" stroke-width="6" stroke-linecap="round" stroke-linejoin="round"/>
</svg>
